static/assets/icons/email-with-letter.svg

<svg height="24" viewBox="0 0 24 24" width="24" xmlns="http://www.w3.org/2000/svg"><path d="m14 2v.00380592l4.9961941 4.99619408h.0038059v6.548l2-.9935685v-3.0544315l-.0080557-.08987563c-.0370439-.20409306-.1979756-.36502474-.4020687-.4020687l-.0898756-.00805567h-.5v-1h1c.5522847 0 1 .44771525 1 1v3.0571612l.0021163-.0010524.0003686 1.0822395-.0024849.0012357v7.860416c0 .5522847-.4477153 1-1 1h-18c-.55228475 0-1-.4477153-1-1v-12c0-.55228475.44771525-1 1-1h1v1h-.5l-.08987563.00805567c-.20409306.03704396-.36502474.19797564-.4020687.4020687l-.00805567.08987563v3.0305489l2 .9934511v-10.524c0-.55228475.44771525-1 1-1zm-11 11.6130482v6.8869518l.00805567.0898756c.03704396.2040931.19797564.3650248.4020687.4020687l.08987563.0080557h17l.0898756-.0080557c.2040931-.0370439.3650248-.1979756.4020687-.4020687l.0080557-.0898756v-6.8631487l-8.9721039 4.4615341zm10-10.6130482h-7v11.021l6.0278961 2.9949932 5.9721039-2.9709932v-6.045h-4c-.5522847 0-1-.44771525-1-1zm1.5 9c.2761424 0 .5.2238576.5.5s-.2238576.5-.5.5h-7c-.27614237 0-.5-.2238576-.5-.5s.22385763-.5.5-.5zm1-2c.2761424 0 .5.2238576.5.5s-.2238576.5-.5.5h-8c-.27614237 0-.5-.2238576-.5-.5s.22385763-.5.5-.5zm-5-2c.2761424 0 .5.22385763.5.5s-.2238576.5-.5.5h-3c-.27614237 0-.5-.22385763-.5-.5s.22385763-.5.5-.5zm3.5-4.58198052v3.58198052h3.5819805zm-2.5 2.58198052c.2761424 0 .5.22385763.5.5s-.2238576.5-.5.5h-4c-.27614237 0-.5-.22385763-.5-.5s.22385763-.5.5-.5z" fill="#414b5d" fill-rule="evenodd"/></svg>

<?xml version="1.0" encoding="UTF-8"?>
<svg width="24px" height="24px" viewBox="0 0 24 24" version="1.1" xmlns="http://www.w3.org/2000/svg" xmlns:xlink="http://www.w3.org/1999/xlink">
    <!-- Generator: Sketch 59.1 (86144) - https://sketch.com -->
    <title>Icons/Email with letter</title>
    <desc>Created with Sketch.</desc>
    <g id="Icons/Email-with-letter" stroke="none" stroke-width="1" fill="none" fill-rule="evenodd">
        <path d="M14,2 L14,2.00380592 L18.9961941,7 L19,7 L19,13.548 L21,12.5544315 L21,9.5 L20.9919443,9.41012437 C20.9549004,9.20603131 20.7939687,9.04509963 20.5898756,9.00805567 L20.5,9 L20,9 L20,8 L21,8 C21.5522847,8 22,8.44771525 22,9 L22,12.0571612 L22.0021163,12.0561088 L22.0024849,13.1383483 L22,13.139584 L22,21 C22,21.5522847 21.5522847,22 21,22 L3,22 C2.44771525,22 2,21.5522847 2,21 L2,9 C2,8.44771525 2.44771525,8 3,8 L4,8 L4,9 L3.5,9 L3.41012437,9.00805567 C3.20603131,9.04509963 3.04509963,9.20603131 3.00805567,9.41012437 L3,9.5 L3,12.5305489 L5,13.524 L5,3 C5,2.44771525 5.44771525,2 6,2 L14,2 Z M3,13.6130482 L3,20.5 L3.00805567,20.5898756 C3.04509963,20.7939687 3.20603131,20.9549004 3.41012437,20.9919443 L3.5,21 L20.5,21 L20.5898756,20.9919443 C20.7939687,20.9549004 20.9549004,20.7939687 20.9919443,20.5898756 L21,20.5 L21,13.6368513 L12.0278961,18.0983854 L3,13.6130482 Z M13,3 L6,3 L6,14.021 L12.0278961,17.0159932 L18,14.045 L18,8 L14,8 C13.4477153,8 13,7.55228475 13,7 L13,3 Z M14.5,12 C14.7761424,12 15,12.2238576 15,12.5 C15,12.7761424 14.7761424,13 14.5,13 L7.5,13 C7.22385763,13 7,12.7761424 7,12.5 C7,12.2238576 7.22385763,12 7.5,12 L14.5,12 Z M15.5,10 C15.7761424,10 16,10.2238576 16,10.5 C16,10.7761424 15.7761424,11 15.5,11 L7.5,11 C7.22385763,11 7,10.7761424 7,10.5 C7,10.2238576 7.22385763,10 7.5,10 L15.5,10 Z M10.5,8 C10.7761424,8 11,8.22385763 11,8.5 C11,8.77614237 10.7761424,9 10.5,9 L7.5,9 C7.22385763,9 7,8.77614237 7,8.5 C7,8.22385763 7.22385763,8 7.5,8 L10.5,8 Z M14,3.41801948 L14,7 L17.5819805,7 L14,3.41801948 Z M11.5,6 C11.7761424,6 12,6.22385763 12,6.5 C12,6.77614237 11.7761424,7 11.5,7 L7.5,7 C7.22385763,7 7,6.77614237 7,6.5 C7,6.22385763 7.22385763,6 7.5,6 L11.5,6 Z" id="Shape" fill="#414B5D"></path>
    </g>
</svg>
